X: 1
T: Lucky Trapper, The
M: 4/4
L: 1/8
R: reel
K: Gmaj
D|:G2 BG DGBG|DGBG cGBG|A2 AF DFAF|DFAc B2 AF|
G2 BG DGBG|cGBG ABAG|FGAB cdef|1gfga g2 D2:|2 gfga g2 Bd||
|:g2 ga gfed|ea z a abag|fd z d dedc|BGAF G2 Bd|
g2 ga gfed|ea z a abag|fgag fdef|1gfaf g2 Bd:|2 gfaf g2||
